X:32
T:Cruit Island Reel*
B:NFID.188c  ("untitled reel")
032cruit
S:DOD
N:Part 1 resembles "Man of the House"
L:1/8
M:C
R:reel
Q:360
K:Em
D|E2BE GABe|E2BG FDDF|E2BE GABG|FdAd FBAF|
E2BE GABe|E2BG FDDF|EFGE FGAF|GdBG FDDF||
EeeB GBAF|EddA FAFD|EedB cABG|FDFA dAFD|
EeeB GBAF|EedA FDDF|Eege fde^c|d^cBA FDDF||

%%%

